src/assets/icons/weeks,fancy,42.svg

<svg width="48" height="48" viewBox="0 0 48 48" fill="none" xmlns="http://www.w3.org/2000/svg">
<rect opacity="0.2" x="4" y="6" width="40" height="40" rx="4" fill="black"/>
<path d="M7.03569 37.4205H16.8098V41H20.9263V37.4205H23.4519V33.9702H20.9263V20.6364H15.5371L7.03569 34.0298V37.4205ZM16.8894 33.9702H11.3709V33.8111L16.7303 25.3295H16.8894V33.9702ZM26.3205 41H40.8375V37.4801H32.2864V37.3409L35.2594 34.4276C39.4455 30.6094 40.5691 28.7003 40.5691 26.3835C40.5691 22.8537 37.6855 20.358 33.3205 20.358C29.0449 20.358 26.1117 22.9134 26.1216 26.9105H30.2083C30.1983 24.9616 31.4313 23.7685 33.2907 23.7685C35.0804 23.7685 36.4128 24.8821 36.4128 26.6719C36.4128 28.2926 35.4185 29.4062 33.5691 31.1861L26.3205 37.8977V41Z" fill="black"/>
<g opacity="0.4">
<path d="M10 4C10 2.89543 10.8954 2 12 2C13.1046 2 14 2.89543 14 4V8C14 9.10457 13.1046 10 12 10C10.8954 10 10 9.10457 10 8V4Z" fill="black"/>
<path d="M34 4C34 2.89543 34.8954 2 36 2C37.1046 2 38 2.89543 38 4V8C38 9.10457 37.1046 10 36 10C34.8954 10 34 9.10457 34 8V4Z" fill="black"/>
</g>
<path fill-rule="evenodd" clip-rule="evenodd" d="M10 6.00869C7.52043 6.04456 6.11466 6.22849 5.17157 7.17157C4 8.34315 4 10.2288 4 14V16H44V14C44 10.2288 44 8.34315 42.8284 7.17157C41.8853 6.22849 40.4796 6.04456 38 6.00869V8C38 9.10457 37.1046 10 36 10C34.8954 10 34 9.10457 34 8V6H14V8C14 9.10457 13.1046 10 12 10C10.8954 10 10 9.10457 10 8V6.00869Z" fill="black"/>
</svg>

<svg xmlns="http://www.w3.org/2000/svg" width="48" height="48" fill="none" viewBox="0 0 48 48">
  <rect width="40" height="40" x="4" y="6" fill="#000" opacity=".2" rx="4"/>
  <path fill="#000" d="M7.036 37.42h9.774V41h4.116v-3.58h2.526v-3.45h-2.526V20.636h-5.389L7.036 34.03v3.39zm9.853-3.45h-5.518v-.159l5.36-8.482h.158v8.641zM26.32 41h14.517v-3.52h-8.55v-.14l2.972-2.912c4.187-3.819 5.31-5.728 5.31-8.044 0-3.53-2.884-6.026-7.248-6.026-4.276 0-7.21 2.555-7.2 6.552h4.087c-.01-1.948 1.223-3.142 3.083-3.142 1.79 0 3.122 1.114 3.122 2.904 0 1.62-.994 2.734-2.844 4.514l-7.249 6.712V41z"/>
  <g opacity=".4">
    <path fill="#000" d="M10 4a2 2 0 114 0v4a2 2 0 11-4 0V4zM34 4a2 2 0 114 0v4a2 2 0 11-4 0V4z"/>
  </g>
  <path fill="#000" fill-rule="evenodd" d="M10 6.009c-2.48.036-3.885.22-4.828 1.163C4 8.343 4 10.229 4 14v2h40v-2c0-3.771 0-5.657-1.172-6.828-.943-.944-2.348-1.127-4.828-1.163V8a2 2 0 11-4 0V6H14v2a2 2 0 11-4 0V6.009z" clip-rule="evenodd"/>
</svg>
